static/logos/togglTrack-wordmark-color.svg

<svg width="100" height="20" viewBox="0 0 100 20" fill="none" xmlns="http://www.w3.org/2000/svg">
<g clip-path="url(#clip0_1_669)">
<path d="M61.9813 15.4503C61.7112 15.4851 61.4393 15.5019 61.1669 15.5006C60.2597 15.5006 59.5795 15.291 59.1256 14.8719C58.6723 14.4515 58.4453 13.7198 58.4453 12.6773V6.33893H56.2812V5.24193H58.4453V2.51978H59.7028V5.24193H62.692V6.33893H59.7028V12.7377C59.7028 13.2796 59.813 13.6826 60.0327 13.9473C60.2525 14.2108 60.6513 14.3425 61.2286 14.3425C61.5447 14.3425 61.8196 14.3299 62.0531 14.3024C62.2866 14.2755 62.5202 14.2413 62.7537 14.2006V15.2982C62.4926 15.3659 62.2351 15.4162 61.9813 15.4503Z" fill="#E57CD8"/>
<path d="M33.9175 16.9405C33.8882 16.0794 33.6301 15.1669 32.9732 14.5657C32.2391 13.895 31.1768 13.5866 30.1899 13.5866H25.7911C25.357 13.5866 24.9714 13.2651 24.9714 12.8681C24.9714 12.5345 25.2025 12.2549 25.5163 12.1734C25.5151 12.1734 25.5899 12.1543 25.6708 12.1291C26.4582 12.5016 27.3468 12.6699 28.2337 12.6699C29.5905 12.6699 30.9504 12.277 31.9462 11.3597C32.9151 10.4675 33.3678 9.21835 33.3678 7.94111C33.3678 6.66326 32.9151 5.41417 31.9456 4.52196C31.6622 4.26208 31.3467 4.03952 31.0067 3.85968C31.9408 4.07286 32.9049 3.80879 33.5696 2.68005L31.7001 1.35669L30.1396 3.49622C29.5223 3.30483 28.8793 3.20931 28.2331 3.21298C26.8768 3.21298 25.5163 3.60579 24.5211 4.52316C23.5516 5.41537 23.0989 6.66386 23.0989 7.94171C23.0989 9.21955 23.5516 10.4675 24.5211 11.3609C24.6049 11.4387 24.6923 11.5118 24.7816 11.5824L24.6001 11.677C24.2414 11.8746 23.8037 12.1902 23.3702 12.6453C22.7552 13.289 22.1408 14.2555 22.1408 15.5393C22.1408 15.5393 22.0552 18.2806 25.2498 18.2806H27.5642C28.0965 18.2806 28.639 18.6148 28.639 19.1393C28.639 19.3291 28.5822 19.507 28.4846 19.6555H32.9097C33.5798 18.9219 33.9498 17.8818 33.9175 16.9405ZM27.4486 7.0962C27.6672 6.88063 27.9666 6.78781 28.2648 6.78781C28.563 6.78781 28.8618 6.88063 29.0804 7.0962C29.2935 7.30578 29.3929 7.59979 29.3929 7.90039C29.3929 8.20099 29.2935 8.4944 29.0804 8.70458C28.8618 8.92015 28.563 9.01296 28.2648 9.01296C27.9666 9.01296 27.6672 8.92075 27.4486 8.70458C27.2355 8.495 27.1361 8.20159 27.1361 7.90039C27.1361 7.59979 27.2355 7.30638 27.4486 7.0962Z" fill="#E57CD8"/>
<path d="M46.516 16.9405C46.4861 16.0794 46.2286 15.1669 45.5711 14.5657C44.8376 13.895 43.7753 13.5866 42.7885 13.5866L37.6813 13.5501C37.3597 13.5501 37.1136 13.3507 37.1136 13.0567C37.1136 12.8142 37.2358 12.4525 37.5436 12.392C38.155 12.5796 38.7914 12.6733 39.431 12.6699C40.7879 12.6699 42.1478 12.277 43.1436 11.3597C44.1124 10.4675 44.5651 9.21835 44.5651 7.94111C44.5651 6.66326 44.1124 5.41417 43.1436 4.52196C42.8603 4.26191 42.545 4.03914 42.2053 3.85908C43.1394 4.07226 44.1035 3.80819 44.7675 2.67945L42.8981 1.35669L41.3382 3.49622C40.7207 3.30484 40.0775 3.20932 39.431 3.21298C38.0747 3.21298 36.7148 3.60579 35.719 4.52316C34.7496 5.41477 34.2969 6.66326 34.2969 7.94111C34.2969 9.21895 34.7502 10.4669 35.719 11.3603C36.0065 11.6243 36.3238 11.8453 36.6627 12.0255C36.4388 12.1932 36.2035 12.3986 35.9681 12.6447C35.3544 13.289 34.7394 14.2555 34.7394 15.5393C34.7394 15.5393 34.6544 18.2806 37.849 18.2806H40.1627C40.6951 18.2806 41.2376 18.6148 41.2376 19.1393C41.2376 19.3291 41.1807 19.507 41.0831 19.6555H45.5083C46.1783 18.9219 46.549 17.8818 46.516 16.9405ZM38.6777 7.0962C38.8963 6.88063 39.1951 6.78781 39.4939 6.78781C39.7921 6.78781 40.0909 6.88063 40.3101 7.0962C40.5226 7.30578 40.6226 7.59979 40.6226 7.90039C40.6226 8.20099 40.5226 8.4944 40.3101 8.70458C40.0909 8.92015 39.7921 9.01296 39.4939 9.01296C39.1951 9.01296 38.8963 8.92075 38.6777 8.70458C38.4645 8.495 38.3651 8.20159 38.3651 7.90039C38.3651 7.59979 38.4645 7.30638 38.6777 7.0962Z" fill="#E57CD8"/>
<path d="M51.8725 15.5342V11.4425C50.9193 11.5617 50.5875 10.8994 50.5875 10.2413V0.250305H45.8594V10.988C45.8594 12.3216 46.0606 13.4336 46.5486 14.133C47.2989 15.1982 48.3133 15.8952 50.3312 15.9036C50.7037 15.8874 51.3252 15.815 51.8725 15.5342Z" fill="#E57CD8"/>
<path d="M20.5348 4.99706C19.3132 3.76951 17.6468 3.24316 15.9827 3.24316C14.3192 3.24316 12.6516 3.77011 11.4318 4.99706C10.2426 6.19225 9.6875 7.86351 9.6875 9.57369C9.6875 11.2845 10.2426 12.9551 11.4312 14.1503C12.6516 15.3779 14.3192 15.9036 15.9827 15.9036C17.6468 15.9036 19.3138 15.3779 20.5348 14.1503C21.7228 12.9551 22.2785 11.2839 22.2785 9.57369C22.2785 7.86351 21.7228 6.19166 20.5348 4.99706ZM17.0115 10.5581C16.7288 10.8372 16.3426 10.9557 15.9576 10.9557C15.5719 10.9557 15.1857 10.8372 14.9037 10.5581C14.6282 10.2869 14.4995 9.90722 14.4995 9.5192C14.4995 9.13058 14.6276 8.75153 14.9031 8.48028C15.1857 8.20183 15.5719 8.08207 15.957 8.08207C16.3426 8.08207 16.7294 8.20183 17.0115 8.48028C17.2869 8.75153 17.4156 9.13058 17.4156 9.5192C17.4156 9.90722 17.2869 10.2869 17.0115 10.5581Z" fill="#E57CD8"/>
<path d="M7.98503 11.4587C7.1982 11.4587 6.87665 11.2216 6.58563 10.8575C6.39761 10.6198 6.30419 10.2707 6.30419 9.81799V7.70002H8.94252V3.9036H6.30359V0.250305H2.93054V1.61558C2.93054 3.12875 1.76108 4.35569 0.318563 4.35569C0.212044 4.35532 0.10565 4.34832 0 4.33474V7.70002H1.77126V11.0821C1.77126 12.4126 2.01497 13.4383 2.5018 14.1366C3.25449 15.2054 4.08862 15.9042 6.12515 15.9042C7.30599 15.9042 8.29461 15.6366 8.94252 15.2797V11.3018C8.6982 11.394 8.36767 11.4587 7.98443 11.4587" fill="#E57CD8"/>
<path d="M67.0002 5.528C67.5499 5.10764 68.2157 4.89746 68.9996 4.89746C69.2882 4.89746 69.6247 4.93219 70.0097 4.99926V6.29985C69.8331 6.26159 69.6541 6.23434 69.4738 6.21841C69.3091 6.20488 69.1439 6.19811 68.9786 6.19805C68.3738 6.19805 67.869 6.31302 67.4636 6.54356C67.0642 6.76793 66.7277 7.08919 66.4846 7.47769C66.2373 7.87051 66.0618 8.33757 65.9589 8.87949C65.8535 9.44907 65.802 10.0272 65.8044 10.6064V15.2993H64.5469V5.14177H65.763V7.45793C66.0385 6.59087 66.4505 5.94776 67.0002 5.528ZM71.5337 6.38069C71.7391 6.06979 72.0056 5.80375 72.3163 5.59866C72.6463 5.37531 73.0451 5.20285 73.5121 5.08069C73.9792 4.95854 74.5361 4.89746 75.1822 4.89746C76.5559 4.89746 77.5732 5.20884 78.2325 5.83219C78.8924 6.45494 79.2223 7.39027 79.2223 8.63578V15.2993H77.9648V13.1256C77.6487 13.8981 77.1577 14.4867 76.4906 14.8927C75.8241 15.2993 75.0583 15.5028 74.1924 15.5028C73.6289 15.5028 73.1307 15.4244 72.6978 15.2693C72.2648 15.1136 71.9044 14.8999 71.6157 14.6286C71.3265 14.3566 71.1008 14.0236 70.9559 13.6537C70.8032 13.2658 70.7265 12.8521 70.7295 12.4352C70.7295 11.4867 71.0415 10.7621 71.6672 10.2615C72.2924 9.75973 73.0792 9.46213 74.0277 9.36692L77.4493 9.04237C77.793 9.00165 77.9642 8.85973 77.9642 8.61542V8.25015C77.9642 7.55913 77.7517 7.01362 77.3259 6.61482C76.8996 6.21542 76.2062 6.01542 75.2439 6.01542C73.4984 6.01542 72.4882 6.65195 72.2139 7.925L71.1002 7.33518C71.196 6.99722 71.3421 6.67548 71.5331 6.38069H71.5337ZM74.2127 10.5244C73.4295 10.6064 72.8732 10.8262 72.5433 11.1855C72.2139 11.5448 72.0487 11.9609 72.0487 12.4352C72.0487 13.0172 72.2445 13.4813 72.6355 13.8262C73.0277 14.1717 73.6014 14.3442 74.3577 14.3442C74.9343 14.3442 75.4463 14.246 75.893 14.0501C76.3175 13.8688 76.7032 13.6065 77.0271 13.2777C77.3319 12.9666 77.5702 12.5968 77.7277 12.1909C77.8834 11.7962 77.9642 11.3757 77.9648 10.9513V10.1196L74.2127 10.5256V10.5244ZM81.0732 8.10763C81.3175 7.4732 81.6894 6.89578 82.166 6.41123C82.6517 5.9229 83.2343 5.5422 83.8768 5.29387C84.5433 5.0298 85.2822 4.89806 86.0924 4.89806C86.8349 4.89806 87.505 5.01303 88.1026 5.24297C88.6894 5.46643 89.2253 5.80501 89.6792 6.23877L88.8756 7.21362C88.4882 6.86841 88.0457 6.59039 87.5666 6.39087C87.0792 6.19207 86.5571 6.09213 86.0307 6.09686C85.4403 6.09686 84.8972 6.19446 84.402 6.39087C83.9247 6.57602 83.49 6.8559 83.1241 7.21362C82.7672 7.56572 82.4888 7.99925 82.2894 8.51362C82.0906 9.02859 81.9906 9.59745 81.9906 10.2202C81.9906 10.843 82.0906 11.4088 82.29 11.9166C82.475 12.403 82.7594 12.8456 83.1241 13.2166C83.4882 13.5801 83.9235 13.8639 84.4026 14.0501C84.9151 14.2498 85.4606 14.3499 86.0103 14.3448C86.5876 14.3448 87.1271 14.2394 87.6283 14.0298C88.1301 13.8202 88.5804 13.5388 88.9786 13.1867L89.7409 14.1615C89.3014 14.5681 88.7726 14.8999 88.1541 15.1567C87.5355 15.4142 86.8277 15.543 86.0307 15.543C85.2199 15.543 84.4846 15.4112 83.8253 15.1472C83.1654 14.8831 82.602 14.5172 82.1349 14.0501C81.6618 13.5741 81.2966 13.0024 81.063 12.3735C80.8157 11.7238 80.6918 11.013 80.6918 10.2406C80.6918 9.46871 80.8187 8.75793 81.0732 8.10763Z" fill="#E57CD8"/>
<path d="M92.4997 12.2725V15.2994H91.2422V1.92218H92.4997V10.6881L97.9206 5.14194H99.6937L95.2206 9.57071L99.7967 15.2994H98.1476L94.3751 10.424L92.4997 12.2725Z" fill="#E57CD8"/>
</g>
<defs>
<clipPath id="clip0_1_669">
<rect width="100" height="19.7605" fill="white"/>
</clipPath>
</defs>
</svg>

<svg xmlns="http://www.w3.org/2000/svg" width="320" height="64" fill="none" viewBox="0 0 100 20"><g fill="#E57CD8" clip-path="url(#a)"><path d="M61.981 15.45c-.27.035-.542.052-.814.05-.907 0-1.587-.209-2.041-.628-.454-.42-.68-1.152-.68-2.195V6.34H56.28V5.242h2.164V2.52h1.258v2.722h2.989v1.097h-2.99v6.399c0 .542.111.945.33 1.21.22.263.62.394 1.197.394.316 0 .59-.012.824-.04.234-.027.467-.06.7-.101v1.097a6.551 6.551 0 0 1-.772.152ZM33.917 16.94c-.029-.86-.287-1.773-.944-2.374-.734-.671-1.796-.98-2.783-.98H25.79c-.434 0-.82-.32-.82-.718 0-.334.232-.613.545-.695 0 0 .074-.019.155-.044.787.373 1.676.54 2.563.54 1.356 0 2.716-.392 3.712-1.31.97-.892 1.422-2.14 1.422-3.418s-.453-2.527-1.422-3.419a4.507 4.507 0 0 0-.94-.662c.935.213 1.899-.051 2.564-1.18L31.7 1.357l-1.56 2.14a6.317 6.317 0 0 0-1.907-.284c-1.356 0-2.717.393-3.712 1.31-.97.892-1.422 2.14-1.422 3.419 0 1.278.453 2.525 1.422 3.419.084.078.171.15.26.221l-.18.095a5.207 5.207 0 0 0-1.23.968c-.616.644-1.23 1.61-1.23 2.894 0 0-.086 2.742 3.109 2.742h2.314c.532 0 1.075.334 1.075.858 0 .19-.057.368-.154.517h4.425a3.962 3.962 0 0 0 1.008-2.715ZM27.45 7.097c.218-.215.518-.308.816-.308.298 0 .597.093.815.308.214.21.313.504.313.804 0 .301-.1.594-.313.805-.218.215-.517.308-.815.308-.298 0-.598-.092-.816-.308a1.114 1.114 0 0 1-.313-.805c0-.3.1-.594.313-.804ZM46.516 16.94c-.03-.86-.287-1.773-.945-2.374-.733-.671-1.796-.98-2.782-.98l-5.108-.036c-.321 0-.567-.2-.567-.493 0-.243.122-.604.43-.665a6.32 6.32 0 0 0 1.887.278c1.357 0 2.717-.393 3.713-1.31.968-.893 1.421-2.142 1.421-3.419 0-1.278-.453-2.527-1.421-3.419a4.513 4.513 0 0 0-.939-.663c.934.213 1.898-.05 2.563-1.18l-1.87-1.322-1.56 2.14a6.322 6.322 0 0 0-1.907-.284c-1.356 0-2.716.393-3.712 1.31-.97.892-1.422 2.14-1.422 3.418s.453 2.526 1.422 3.42c.288.263.605.484.944.664a5.67 5.67 0 0 0-.695.62c-.614.644-1.229 1.61-1.229 2.894 0 0-.085 2.742 3.11 2.742h2.314c.532 0 1.075.334 1.075.858 0 .19-.057.368-.155.517h4.425a3.96 3.96 0 0 0 1.008-2.715Zm-7.838-9.844c.218-.215.517-.308.816-.308.298 0 .597.093.816.308.213.21.313.504.313.804 0 .301-.1.594-.313.805-.22.215-.518.308-.816.308-.299 0-.598-.092-.816-.308a1.113 1.113 0 0 1-.313-.805c0-.3.1-.594.313-.804Z"/><path d="M51.873 15.534v-4.091c-.954.119-1.285-.544-1.285-1.202V.251h-4.729v10.737c0 1.334.202 2.446.69 3.145.75 1.065 1.764 1.762 3.782 1.77.373-.016.994-.088 1.541-.369ZM20.535 4.997c-1.222-1.227-2.888-1.754-4.552-1.754-1.664 0-3.331.527-4.551 1.754-1.19 1.195-1.745 2.867-1.745 4.577s.556 3.381 1.744 4.576c1.22 1.228 2.888 1.754 4.552 1.754 1.664 0 3.33-.526 4.552-1.754 1.188-1.195 1.744-2.866 1.744-4.576 0-1.71-.556-3.382-1.744-4.577Zm-3.523 5.561c-.283.28-.67.398-1.054.398-.386 0-.772-.119-1.054-.398-.276-.271-.405-.65-.405-1.039 0-.388.129-.767.404-1.039.283-.278.669-.398 1.054-.398.386 0 .772.12 1.055.398.275.272.404.65.404 1.04 0 .387-.13.767-.404 1.038ZM7.985 11.459c-.787 0-1.108-.237-1.4-.601-.187-.238-.28-.587-.28-1.04V7.7h2.638V3.904h-2.64V.25H2.932v1.366c0 1.513-1.17 2.74-2.612 2.74-.107 0-.213-.008-.319-.021V7.7h1.771v3.382c0 1.33.244 2.356.73 3.055.753 1.068 1.588 1.767 3.624 1.767 1.181 0 2.17-.267 2.818-.624v-3.978a2.767 2.767 0 0 1-.959.157M67 5.528c.55-.42 1.216-.63 2-.63.288 0 .625.034 1.01.101v1.3a4.332 4.332 0 0 0-.536-.08 6.075 6.075 0 0 0-.495-.021c-.605 0-1.11.115-1.515.346-.4.224-.736.545-.98.934a4.01 4.01 0 0 0-.525 1.401 9.279 9.279 0 0 0-.155 1.727V15.3h-1.257V5.142h1.216v2.316c.275-.867.688-1.51 1.237-1.93Zm4.534.853c.205-.311.472-.577.782-.782.33-.224.73-.396 1.196-.518.467-.122 1.024-.184 1.67-.184 1.374 0 2.391.312 3.05.935.66.623.99 1.558.99 2.804v6.663h-1.257v-2.173c-.316.772-.807 1.36-1.474 1.767-.667.406-1.433.61-2.299.61-.563 0-1.061-.079-1.494-.234a3.075 3.075 0 0 1-1.082-.64 2.682 2.682 0 0 1-.66-.975 3.262 3.262 0 0 1-.227-1.219c0-.948.313-1.673.938-2.174.625-.501 1.412-.799 2.36-.894l3.422-.325c.344-.04.515-.182.515-.427V8.25c0-.69-.212-1.236-.638-1.635-.426-.4-1.12-.6-2.082-.6-1.746 0-2.756.637-3.03 1.91l-1.114-.59c.096-.338.242-.66.433-.954Zm2.679 4.143c-.783.082-1.34.302-1.67.662-.33.359-.494.775-.494 1.25 0 .581.195 1.045.586 1.39.393.346.966.518 1.723.518.576 0 1.088-.098 1.535-.294.424-.181.81-.444 1.134-.772.305-.311.543-.681.7-1.087.156-.395.237-.815.238-1.24v-.831l-3.752.406v-.002Zm6.86-2.416a4.962 4.962 0 0 1 1.093-1.697 4.909 4.909 0 0 1 1.71-1.117c.667-.264 1.406-.396 2.216-.396.743 0 1.413.115 2.01.345a4.706 4.706 0 0 1 1.577.996l-.803.975a4.66 4.66 0 0 0-1.31-.823 3.972 3.972 0 0 0-1.535-.294 4.38 4.38 0 0 0-1.629.294 3.787 3.787 0 0 0-1.278.823 3.652 3.652 0 0 0-.835 1.3 4.702 4.702 0 0 0-.298 1.706c0 .623.1 1.189.299 1.697.185.486.47.929.834 1.3.364.363.8.647 1.279.833.512.2 1.058.3 1.607.295.578 0 1.117-.106 1.618-.315a4.84 4.84 0 0 0 1.35-.843l.763.975c-.44.406-.968.738-1.587.995-.618.257-1.326.386-2.123.386-.811 0-1.546-.132-2.206-.396a4.968 4.968 0 0 1-1.69-1.097 4.699 4.699 0 0 1-1.072-1.677 5.948 5.948 0 0 1-.371-2.132c0-.772.127-1.483.381-2.133ZM92.5 12.273v3.026h-1.258V1.922H92.5v8.766l5.42-5.546h1.774L95.22 9.57l4.576 5.728h-1.65l-3.772-4.875-1.875 1.849Z"/></g><defs><clipPath id="a"><path fill="#fff" d="M0 0h100v19.761H0z"/></clipPath></defs></svg>
